SVG/smile-o.svg

<?xml version="1.0" encoding="utf-8"?>
<!-- Generated by IcoMoon.io -->
<!DOCTYPE svg PUBLIC "-//W3C//DTD SVG 1.1//EN" "http://www.w3.org/Graphics/SVG/1.1/DTD/svg11.dtd">
<svg version="1.1" xmlns="http://www.w3.org/2000/svg" xmlns:xlink="http://www.w3.org/1999/xlink" width="12" height="14" viewBox="0 0 12 14">
<path fill="#444444" d="M8.859 8.398q-0.289 0.945-1.078 1.523t-1.781 0.578-1.781-0.578-1.078-1.523q-0.062-0.195 0.031-0.379t0.297-0.246q0.195-0.062 0.379 0.031t0.246 0.297q0.195 0.625 0.723 1.012t1.184 0.387 1.184-0.387 0.723-1.012q0.062-0.203 0.25-0.297t0.383-0.031 0.289 0.246 0.031 0.379zM5 5q0 0.414-0.293 0.707t-0.707 0.293-0.707-0.293-0.293-0.707 0.293-0.707 0.707-0.293 0.707 0.293 0.293 0.707zM9 5q0 0.414-0.293 0.707t-0.707 0.293-0.707-0.293-0.293-0.707 0.293-0.707 0.707-0.293 0.707 0.293 0.293 0.707zM11 7q0-1.016-0.398-1.941t-1.066-1.594-1.594-1.066-1.941-0.398-1.941 0.398-1.594 1.066-1.066 1.594-0.398 1.941 0.398 1.941 1.066 1.594 1.594 1.066 1.941 0.398 1.941-0.398 1.594-1.066 1.066-1.594 0.398-1.941zM12 7q0 1.633-0.805 3.012t-2.184 2.184-3.012 0.805-3.012-0.805-2.184-2.184-0.805-3.012 0.805-3.012 2.184-2.184 3.012-0.805 3.012 0.805 2.184 2.184 0.805 3.012z"></path>
</svg>

<svg xmlns="http://www.w3.org/2000/svg" viewBox="0 0 12 14"><path d="M8.86 8.398q-.29.945-1.08 1.523T6 10.5t-1.78-.58T3.14 8.4q-.06-.195.032-.38t.297-.245q.194-.062.378.03t.246.298q.195.626.723 1.013T6 9.5t1.185-.387.723-1.012q.062-.202.25-.296t.383-.03.29.245.03.378zM5 5q0 .414-.293.707T4 6t-.707-.293T3 5t.293-.707T4 4t.707.293T5 5zm4 0q0 .414-.293.707T8 6t-.707-.293T7 5t.293-.707T8 4t.707.293T9 5zm2 2q0-1.016-.398-1.94T9.536 3.464 7.942 2.4 6.002 2t-1.942.4-1.594 1.065T1.4 5.06 1.002 7 1.4 8.94t1.066 1.595T4.06 11.6 6 12t1.942-.4 1.594-1.065 1.066-1.594T11 7zm1 0q0 1.633-.805 3.012T9.01 12.196 6 13t-3.013-.804-2.184-2.184T-.002 7t.805-3.012 2.184-2.184T6 1t3.01.804 2.185 2.184T12 7z" /></svg>
